X:750
T:The Mullingar races
C:anon.
O:Ireland
B:Francis O'Neill: "The Dance Music of Ireland" (1907) no. 750
R:Reel
M:C|
L:1/8
K:D
A,2|D2(FD) EA,A,E|DEFA Bcde|(3(fga) ec dcdA|(3(Bcd) AF EGFE|DEFD EA,A,E|DEFG Bcde|(3(fga) ec dBAG|
FGEF D2||(3(ABc)|d2(fd) adfb|afdf edBc|d2(fd) adfd|Beed egfe|d2(fd) adfb|afdf edBc|dgfe dBAG|FGEF D2|]
